app/dist/common/images/advantage-solutions.svg

<svg height="18" viewBox="0 0 18 18" width="18" xmlns="http://www.w3.org/2000/svg"><path d="m0 0h18v18h-18z" fill="#f0f3fa"/><path d="m9 15a6 6 0 1 1 0-12 6 6 0 0 1 0 12zm0-11.65a5.65 5.65 0 0 0 -5.24 3.48c-.29.7-.4 1.43-.4 2.17a5.62 5.62 0 0 0 7.81 5.24 5.67 5.67 0 0 0 0-10.48 5.65 5.65 0 0 0 -2.17-.4z" fill="#76777a"/><path d="m7.8 6.9h2.4l-1.2-1.9z" fill="#7c94ae"/><path d="m9 9.32 1.19-2.1h-2.39l1.2 2.11zm-2.6.13h2.4l-1.2-2.12zm2.8 0 1.2-2.12 1.2 2.12z" fill="#3b6489"/><path d="m7.6 11.87-1.18-2.1h2.37zm-1.4-2 1.2 2.13h-2.4l1.2-2.12zm3.01-.1 1.19 2.1 1.18-2.1zm1.39 2.23 1.2-2.12 1.2 2.12z" fill="#003764"/></svg>

<!-- by TradingView --><svg width="18" height="18" viewBox="0 0 18 18" xmlns="http://www.w3.org/2000/svg"><path fill="#F0F3FA" d="M0 0h18v18H0z"/><path d="M9 15A6 6 0 1 1 9 3a6 6 0 0 1 0 12ZM9 3.35a5.65 5.65 0 0 0-5.24 3.48c-.29.7-.4 1.43-.4 2.17a5.62 5.62 0 0 0 7.81 5.24 5.67 5.67 0 0 0 0-10.48A5.65 5.65 0 0 0 9 3.36Z" fill="#76777A"/><path d="M7.8 6.9h2.4L9 5 7.8 6.9Z" fill="#7C94AE"/><path d="m9 9.32 1.19-2.1H7.8L9 9.33Zm-2.6.13h2.4L7.6 7.33 6.4 9.45Zm2.8 0 1.2-2.12 1.2 2.12H9.2Z" fill="#3B6489"/><path d="m7.6 11.87-1.18-2.1h2.37l-1.19 2.1Zm-1.4-2L7.4 12H5l1.2-2.12Zm3.01-.1 1.19 2.1 1.18-2.1H9.21ZM10.6 12l1.2-2.12L13 12h-2.4Z" fill="#003764"/></svg>
